X: 25042
T: Maids In The Meadow, The
R: reel
M: 4/4
K: Dmajor
|:dged =cAGB|Addc dfag|fded =cAGF|(3EFG =cG EDDc|
dged =cAGB|Addc dfag|fded =cAGF|E2 =cG ED D2:|
|:fddc d2 (3Bcd|eaag efge|fddc d2 (3Bcd|eaag edde|
fddc d2 (3Bcd|eaag efge|fddc dAcd|eaag efge|

